www/assets/icons/sports_hockey.svg

<svg xmlns="http://www.w3.org/2000/svg" width="24" height="24" viewBox="0 0 24 24" fill='currentColor'><path d="M2 17v3h2v-4H3c-.55 0-1 .45-1 1m7-1H5v4l4.69-.01c.38 0 .72-.21.89-.55l.87-1.9-1.59-3.48zm12.71.29A1 1 0 0 0 21 16h-1v4h2v-3c0-.28-.11-.53-.29-.71m-8.11-3.45L17.65 4H14.3l-1.76 3.97-.49 1.1-.05.14L9.7 4H6.35l5.57 12.16.08.18 1.42 3.1c.17.34.51.55.89.55L19 20v-4h-4z"/></svg>

<svg width="24" height="24" viewBox="0 0 24 24" xmlns="http://www.w3.org/2000/svg" fill='currentColor'><path d="M2 17V20H4V16H3C2.45 16 2 16.45 2 17Z"/><path d="M9 16H5V20L9.69 19.99C10.07 19.99 10.41 19.78 10.58 19.44L11.45 17.54L9.86 14.06L9 16Z"/><path d="M21.71 16.29C21.53 16.11 21.28 16 21 16H20V20H22V17C22 16.72 21.89 16.47 21.71 16.29Z"/><path d="M13.6 12.84L17.65 4H14.3L12.54 7.97L12.05 9.07L12 9.21L9.7 4H6.35L11.92 16.16L12 16.34L13.42 19.44C13.59 19.78 13.93 19.99 14.31 19.99L19 20V16H15L13.6 12.84Z"/></svg>
